icons/home-gear-line.svg

<svg viewBox="0 0 24 24" fill="currentColor" xmlns="http://www.w3.org/2000/svg"><path d="M19 21H5C4.44772 21 4 20.5523 4 20V11L1 11L11.3273 1.6115C11.7087 1.26475 12.2913 1.26475 12.6727 1.6115L23 11L20 11V20C20 20.5523 19.5523 21 19 21ZM6 19H18V9.15745L12 3.7029L6 9.15745V19ZM8.59117 13.8089C8.52937 13.5486 8.49666 13.277 8.49666 12.9978C8.49666 12.7186 8.52936 12.4471 8.59115 12.1868L7.60001 11.6145L8.59952 9.88333L9.59136 10.456C9.98427 10.0843 10.4633 9.80273 10.9954 9.64436V8.49998H12.9945V9.64436C13.5266 9.80272 14.0056 10.0843 14.3985 10.4559L15.3904 9.88323L16.39 11.6144L15.3987 12.1867C15.4605 12.447 15.4932 12.7186 15.4932 12.9978C15.4932 13.277 15.4605 13.5485 15.3988 13.8088L16.39 14.381L15.3905 16.1122L14.3986 15.5396C14.0057 15.9112 13.5267 16.1928 12.9946 16.3512V17.4956H10.9955V16.3512C10.4634 16.1929 9.98437 15.9114 9.59144 15.5397L8.59957 16.1123L7.60001 14.3811L8.59117 13.8089ZM11.995 14.4971C12.823 14.4971 13.4942 13.8258 13.4942 12.9978C13.4942 12.1698 12.823 11.4985 11.995 11.4985C11.1669 11.4985 10.4957 12.1698 10.4957 12.9978C10.4957 13.8258 11.1669 14.4971 11.995 14.4971Z"/></svg>

<svg xmlns="http://www.w3.org/2000/svg" viewBox="0 0 24 24">
    <g>
        <path fill="none" d="M0 0h24v24H0z"/>
        <path d="M19 21H5a1 1 0 0 1-1-1v-9H1l10.327-9.388a1 1 0 0 1 1.346 0L23 11h-3v9a1 1 0 0 1-1 1zM6 19h12V9.157l-6-5.454-6 5.454V19zm2.591-5.191a3.508 3.508 0 0 1 0-1.622l-.991-.572 1-1.732.991.573a3.495 3.495 0 0 1 1.404-.812V8.5h2v1.144c.532.159 1.01.44 1.404.812l.991-.573 1 1.731-.991.573a3.508 3.508 0 0 1 0 1.622l.991.572-1 1.731-.991-.572a3.495 3.495 0 0 1-1.404.811v1.145h-2V16.35a3.495 3.495 0 0 1-1.404-.811l-.991.572-1-1.73.991-.573zm3.404.688a1.5 1.5 0 1 0 0-2.998 1.5 1.5 0 0 0 0 2.998z"/>
    </g>
</svg>
